img/svg/editors/percent.svg

<svg width="29" height="28" viewBox="0 0 29 28" fill="none" xmlns="http://www.w3.org/2000/svg">
<path d="M20.8242 16.25C21.7878 16.25 22.714 16.6092 23.4248 17.2529L23.5645 17.3848C24.2912 18.1115 24.6992 19.0973 24.6992 20.125C24.6992 21.0885 24.34 22.0147 23.6963 22.7256L23.5645 22.8652C22.8377 23.5919 21.8519 24 20.8242 24C19.8607 24 18.9345 23.6408 18.2236 22.9971L18.084 22.8652C17.3573 22.1385 16.9492 21.1527 16.9492 20.125C16.9492 19.1615 17.3084 18.2353 17.9521 17.5244L18.084 17.3848C18.8107 16.6581 19.7965 16.25 20.8242 16.25ZM23.4492 4.65625C23.4883 4.65625 23.5273 4.65939 23.5654 4.66699L23.6768 4.70117C23.7127 4.71608 23.7471 4.73435 23.7793 4.75586L23.8691 4.83008C23.8967 4.85765 23.9218 4.88765 23.9434 4.91992L23.998 5.02246C24.0279 5.0945 24.043 5.17201 24.043 5.25C24.043 5.28908 24.0398 5.32807 24.0322 5.36621L23.998 5.47754C23.9831 5.51348 23.9649 5.54788 23.9434 5.58008L23.8691 5.66992L6.36914 23.1699C6.34155 23.1975 6.31159 23.2226 6.2793 23.2441L6.17676 23.2988C6.10471 23.3287 6.02721 23.3438 5.94922 23.3438C5.91008 23.3437 5.8712 23.3397 5.83301 23.332L5.72168 23.2988C5.6497 23.269 5.5844 23.225 5.5293 23.1699C5.5017 23.1423 5.47665 23.1124 5.45508 23.0801L5.40039 22.9775C5.37054 22.9055 5.35547 22.828 5.35547 22.75C5.35547 22.7109 5.35956 22.672 5.36719 22.6338L5.40039 22.5225C5.41529 22.4865 5.43357 22.4521 5.45508 22.4199L5.5293 22.3301L23.0293 4.83008C23.0569 4.8025 23.0869 4.77742 23.1191 4.75586L23.2217 4.70117C23.2937 4.67132 23.3712 4.65625 23.4492 4.65625ZM20.8242 17C19.9954 17 19.2003 17.329 18.6143 17.915C18.0282 18.5011 17.6992 19.2962 17.6992 20.125C17.6992 20.9538 18.0282 21.7489 18.6143 22.335C19.2003 22.921 19.9954 23.25 20.8242 23.25C21.653 23.25 22.4481 22.921 23.0342 22.335C23.6202 21.7489 23.9492 20.9538 23.9492 20.125C23.9492 19.2962 23.6202 18.5011 23.0342 17.915C22.4481 17.329 21.653 17 20.8242 17ZM8.57422 4C9.53775 4 10.464 4.35923 11.1748 5.00293L11.3145 5.13477C12.0412 5.86147 12.4492 6.84729 12.4492 7.875C12.4492 8.90271 12.0412 9.88853 11.3145 10.6152C10.5877 11.3419 9.60193 11.75 8.57422 11.75C7.61068 11.75 6.68448 11.3908 5.97363 10.7471L5.83398 10.6152C5.10728 9.88853 4.69922 8.90271 4.69922 7.875C4.69922 6.91147 5.05844 5.98526 5.70215 5.27441L5.83398 5.13477C6.56069 4.40806 7.5465 4 8.57422 4ZM8.57422 4.75C7.79712 4.75 7.04984 5.03941 6.47656 5.55859L6.36426 5.66504C5.77821 6.25109 5.44922 7.0462 5.44922 7.875C5.44922 8.6521 5.73863 9.39938 6.25781 9.97266L6.36426 10.085C6.95031 10.671 7.74542 11 8.57422 11C9.35131 11 10.0986 10.7106 10.6719 10.1914L10.7842 10.085C11.3702 9.49891 11.6992 8.7038 11.6992 7.875C11.6992 7.0979 11.4098 6.35062 10.8906 5.77734L10.7842 5.66504C10.1981 5.07899 9.40302 4.75 8.57422 4.75Z" fill="#030303" stroke="#FBFBFB"/>
</svg>

<svg width="29" height="28" fill="none" xmlns="http://www.w3.org/2000/svg"><path d="M20.824 16.25c.964 0 1.89.36 2.6 1.003l.14.132a3.875 3.875 0 01.132 5.34l-.132.14a3.876 3.876 0 01-5.34.132l-.14-.132a3.875 3.875 0 01-.132-5.34l.132-.14a3.875 3.875 0 012.74-1.135zM23.45 4.656c.04 0 .078.003.116.011l.112.034c.036.015.07.033.102.055l.09.074a.596.596 0 01.074.09l.055.102a.594.594 0 01.034.344l-.034.112a.595.595 0 01-.055.102l-.074.09-17.5 17.5a.59.59 0 01-.09.074l-.102.055a.594.594 0 01-.344.033l-.111-.033a.593.593 0 01-.267-.219l-.055-.102a.594.594 0 01-.033-.344l.033-.111a.593.593 0 01.055-.103l.074-.09 17.5-17.5a.599.599 0 01.09-.074l.103-.055a.594.594 0 01.227-.045zM20.824 17a3.125 3.125 0 100 6.25 3.125 3.125 0 000-6.25zM8.574 4c.964 0 1.89.36 2.6 1.003l.14.132a3.875 3.875 0 01-5.34 5.612l-.14-.132a3.875 3.875 0 01-.132-5.34l.132-.14A3.875 3.875 0 018.574 4zm0 .75c-.777 0-1.524.29-2.097.809l-.113.106a3.125 3.125 0 00-.106 4.308l.106.112a3.126 3.126 0 004.308.106l.112-.106a3.126 3.126 0 00.107-4.308l-.107-.112a3.125 3.125 0 00-2.21-.915z" fill="#030303" stroke="#FBFBFB"/></svg>
